outputs/icons/audio_video/microphone_off_sharp.svg

<svg xmlns="http://www.w3.org/2000/svg" width="1200" height="1200" fill="none"><g clip-path="url(#a)"><path fill="#000" d="M750 530V250c0-83-67-150-150-150-77 0-139.5 58-148 132.5zm200 20h-85c0 29-5 56.5-13.5 82l63.5 63.5c22-44 35-93.5 35-145.5M220.5 143 150 213.5l300 300V550c0 83 67 150 150 150 11.5 0 22-1.5 32.5-4l83 83c-35.5 16.5-75 26-115.5 26-138 0-265-105-265-255h-85c0 170.5 136 311.5 300 336v164h100V886c45.5-6.5 88.5-22.5 127.5-45l210 210 70.5-70.5z"/></g><defs><clipPath id="a"><path fill="#fff" d="M0 0h1200v1200H0z"/></clipPath></defs></svg>

<svg width="1200" height="1200" viewBox="0 0 1200 1200" fill="none" xmlns="http://www.w3.org/2000/svg"><g clip-path="url(#clip0_124_1154)"><path d="M750 530V250C750 167 683 100 600 100C523 100 460.5 158 452 232.5L750 530ZM950 550H865C865 579 860 606.5 851.5 632L915 695.5C937 651.5 950 602 950 550ZM220.5 143L150 213.5L450 513.5V550C450 633 517 700 600 700C611.5 700 622 698.5 632.5 696L715.5 779C680 795.5 640.5 805 600 805C462 805 335 700 335 550H250C250 720.5 386 861.5 550 886V1050H650V886C695.5 879.5 738.5 863.5 777.5 841L987.5 1051L1058 980.5L220.5 143Z" fill="black"/></g><defs><clipPath id="clip0_124_1154"><path width="24" fill="white" d="M0 0H1200V1200H0V0z"/></clipPath></defs></svg>
